X:1
T:B minor       Abraham Wood, 1793
T:Nahum Tate and Nicholas Brady, 1698 New Version, Psalm 83            86. 86. (C. M.)
T:Lexington
T:Transcribed from The Columbian Harmony, 1793.
%%score [ 1 2 3 4 ]
L:1/8
Q:1/4=120
M:4/4
K:D
V:1 treble nm="Tr." snm="Tr."
V:2 treble nm="C." snm="C."
V:3 treble-8 nm="T." snm="T."
V:4 bass nm="B." snm="B."
V:1
 F4 | F6 A2 | B6 cd | e6 c2 | d6 cB | A6 d2 | c4 B4 | ^A8 | B4 c2 d>e | f6 f2 | d6 ed | c4 c4 | %12
w: 1.~~Hold|not thy|peace, O *|Lord our|God, No *|lon- ger|si- lent|be;|Nor with con- *|sen- ting|qui- et *|looks Our|
 (d3 c B2) ^A2 | (B4 c4 | (3d2 c2 B2) ^A4 | B8 |: z4 B4 | f6 f2 | d6 d2 | e2 e2 c2 c2 | %20
w: ru- * * in|calm- *|* * * ly|see.|For|lo! the|tu- mults|of thy foes o'er|
 B2 ^A2 B2 c2 | d8 | z4 d4 | e2 f2 f2 B2 | c2 B2 ^A2 A2 | d2 dc Bd cA | B8 :| %27
w: all the land are|spread;|And|those who hate the|saints, and thee, lift|up their * threat- * 'ning *|head.|
V:2
 F4 | F6 F2 | F6 F2 | G6 G2 | F6 G2 | (A3 G F2) F2 | G4 F4 | F8 | F4 A2 B2 | A4 A4 | (B4 A2) G2 | %11
w: 2.~~A-|gainst thy|zea- lous|peo- ple,|Lord, They|craf- * * ti-|ly com-|bine;|And to de-|stroy thy|cho- * sen|
 F4 F4 | F6 F2 | (F4 G4 | F4) F4 | F8 |: z4 F4 | A6 A2 | B6 A2 | G2 G2 F2 F2 | D2 F2 FG A2 | A8 | %22
w: saints Have|laid their|close~ _|_ de-|sign.|As|flames con-|sume dry|wood or heath That|on parched moun- * tains|grows,|
 z4 A4 | G2 F2 F2 D2 | G2 F2 F2 F2 | A2 A2 G2 F2 | F8 :| %27
w: So|let thy fierce pur-|su- ing wrath With|ter- ror strike thy|foes.|
V:3
 F4 | B6 c2 | (d3 c B2) ^A2 | (B3 c d2) e2 | f6 ^e2 | (f3 e d2) B2 | e4 d4 | c8 | d4 c2 B2 | %9
w: 3.~~Lord,|shroud their|fa- * * ces|with * * dis-|grace, That|they~ _ _ may|own thy|name;|Or them con-|
 (A3 B c2) F2 | (B3 d c2) B2 | A4 F4 | (B3 c d2) c2 | (d4 e4 | d4) c4 | B8 |: z4 d4 | c6 A2 | %18
w: found,~ _ _ whose|har- * * dened|hearts Thy|gen- * * tle|means~ _|_ dis-|claim.|So|shall the|
 B6 F2 | B2 cB A2 F2 | B2 c2 d2 e2 | f8 | z4 f4 | e2 d2 c2 B2 | e2 d2 c2 c2 | fe d2 cB ^A2 | B8 :| %27
w: wan- d'ring|world con- * fess That|thou, who claim'st a-|lone,|Je-|ho- vah's name, o'er|all the earth Hast|raised * thy lof- * ty|throne.|
V:4
 B,,4 | B,,6 F,2 | (B,3 A, G,2) F,2 | (E,4 D,2) C,2 | B,,6 C,2 | D,6 D,2 | E,4 B,,4 | F,8 | %8
 B,4 A,2 G,2 | F,6 F,2 | (G,4 F,2) E,2 | F,4 F,4 | B,,6 F,2 | (B,4 E,4 | F,4) F,4 | B,,8 |: %16
 z4 B,4 | F,6 F,2 | G,6 F,2 | E,2 E,2 E,2 F,2 | G,2 F,2 B,2 A,2 | D,8 | z4 D,4 | C,2 B,,2 F,2 G,2 | %24
 E,2 B,,2 F,2 F,2 | D,2 D,2 E,2 F,2 | B,,8 :| %27

